X:161
T:New mown hay - Dingle
%%VWML:SBG-1-2-848-0
F:http://www.vwml.org/record/SBG/1/2/848
Z:Original Sibelius transcriptions by M. & S. Graebe
M:4/4
I:linebreak $
K:C
V:1 treble nm="P1"
V:1
 G | C C C C | F E D C | E F G G | c2- G E |$ G G G c | c B A G | c c C C | F2 A2 | G3/2 F/ D E | %10
 C3 x | %11

